X:621
T: IN SCHWARZ WILL ICH MICH KLEIDEN
N: E1967
O: Europa, Mitteleuropa, Deutschland, Bayern, Muenchen
R: geistlich, Fest - Lied, Biblischer Stoff, Passion
M: 3/4
L: 1/8
K: F
c2 | c4d2 | B4c2 | A3Bc2 | G4
F2 | F3GA2 | A2G4 | F6 | z4
c2 | c4d2 | B4c2 | A3Bc2 | G4
F2 | F3GA2 | A2G4 | F6 | z4
A2 | B4B2 | c3BA2 | G3AB2 | G4
B2 | c3BA2 | A3GF2 | G6 | z4
c2 | c4d2 | B4c2 | A3Bc2 | G4
F2 | F3GA2 | A2G4 | F4

